Newaita-dark/.DP/32/tabletconnected.svg

<svg xmlns="http://www.w3.org/2000/svg" xmlns:xlink="http://www.w3.org/1999/xlink" width="32px" height="32px" viewBox="0 0 32 32" version="1.1">
<g id="surface1">
<path style=" stroke:none;fill-rule:nonzero;fill:rgb(93.333334%,93.333334%,93.333334%);fill-opacity:1;" d="M 5.292969 6.203125 C 4.558594 6.203125 3.96875 6.792969 3.96875 7.527344 L 3.96875 24.726562 C 3.96875 25.457031 4.558594 26.050781 5.292969 26.050781 L 26.460938 26.050781 C 27.191406 26.050781 27.785156 25.457031 27.785156 24.726562 L 27.785156 7.527344 C 27.785156 6.792969 27.191406 6.203125 26.460938 6.203125 Z M 7.277344 8.847656 L 24.476562 8.847656 C 24.84375 8.847656 25.136719 9.144531 25.136719 9.511719 L 25.136719 21.417969 C 25.136719 21.785156 24.84375 22.082031 24.476562 22.082031 L 7.277344 22.082031 C 6.910156 22.082031 6.613281 21.785156 6.613281 21.417969 L 6.613281 9.511719 C 6.613281 9.144531 6.910156 8.847656 7.277344 8.847656 Z M 13.894531 23.402344 L 17.863281 23.402344 C 18.226562 23.402344 18.523438 23.675781 18.523438 24.011719 L 18.523438 24.121094 C 18.523438 24.457031 18.226562 24.726562 17.863281 24.726562 L 13.894531 24.726562 C 13.527344 24.726562 13.230469 24.457031 13.230469 24.121094 L 13.230469 24.011719 C 13.230469 23.675781 13.527344 23.402344 13.894531 23.402344 Z M 13.894531 23.402344 "/>
</g>
</svg>

<svg xmlns="http://www.w3.org/2000/svg" width="32pt" height="32pt" viewBox="0 0 32 32"><path d="M5.293 6.203a1.32 1.32 0 0 0-1.324 1.324v17.2c0 .734.59 1.324 1.324 1.324h21.168a1.32 1.32 0 0 0 1.324-1.324v-17.2a1.32 1.32 0 0 0-1.324-1.324zm1.984 2.649h17.2c.367 0 .66.293.66.66v11.906a.66.66 0 0 1-.66.664h-17.2a.664.664 0 0 1-.664-.664V9.512a.66.66 0 0 1 .664-.66zm6.614 14.55h3.968c.368 0 .664.274.664.61v.11c0 .335-.296.605-.664.605h-3.968c-.364 0-.66-.27-.66-.606v-.11c0-.335.296-.609.66-.609zm0 0" fill="#bdbdbd"/></svg>
